!!!OTL: GLEICHWIE EIN FRUCHTBAR REGEN
!!!ARE: Europa, Mitteleuropa, Deutschland
!!!SCT: E2120
!!!YEM: Copyright 1995, estate of Helmut Schaffrath.
**kern
*ICvox
*Ivox
*M4/4
*k[b-]
*F:
{4e
=1
4f
4e
4f
4g
=2
2e
4a}
{4e
=3
4f
4f
4g
4g
=4
2a
4r}
{4e
=5
4f
4e
4f
4g
=6
2e
4a}
{4e
=7
4f
4f
4g
4g
=8
2a
4r}
{4a
=9
4a
4a
4a
4a
=10
2g
4g}
{4g
=11
4e
4f
4d
4e
=12
2f
4r}
{4f
=13
4g
4g
4e
4e
=14
2f
4b-}
{4b-
=15
4a
4a
4g
4g
=16
2f
4r}
==
!!!AGN: geistlich, Heiligen - Lied, Legende
!!!ONB: ESAC (Essen Associative Code) Database: ERK3
!!!AMT: simple quadruple
!!!AIN: vox
!!!EED: Helmut Schaffrath
!!!EEV: 1.0
*-
